X: 11206
T: Dunphy's
R: hornpipe
M: 4/4
K: Gmajor
BA|GDBD G2 g2|feed ecAG|FA DE FGAc|BG AF GFED|
GDBD G2 g2|feed ecAG|FAdB cAFG|AGGF G2:|
|:Bc|d2Bd gdBd|g2 af gdBd|g2 fg ed^cd|edd^c d2 ef|
g2dc BGBd|ecAG FADF|GBdB cAFG|AGGF G2:|

